X: 33320
T: Quark Soup
R: polka
M: 2/4
K: Eminor
|:D|E>F GE|BE- EG/E/|B/G/E GB|AD- DF|
EE/F/ G/F/E|BE G>B|A>B AG|FD- D:|
|:c|Be e>f|g/f/e fd|ce e>f|g/a/g/f/ f/e/d/c/|
Be- ef|gf ed|cA Ae/d/|cA- Ac|
B>e ef|g/a/g/f/ ed|c>e ef|gf ed|
Be- ee/f/|gf ed|B/c/d AF|GE- E||

